contributed-vectors/xoom.svg

<?xml version="1.0" encoding="UTF-8" standalone="no"?>
<svg
   xmlns:dc="http://purl.org/dc/elements/1.1/"
   xmlns:cc="http://creativecommons.org/ns#"
   xmlns:rdf="http://www.w3.org/1999/02/22-rdf-syntax-ns#"
   xmlns:svg="http://www.w3.org/2000/svg"
   xmlns="http://www.w3.org/2000/svg"
   xmlns:sodipodi="http://sodipodi.sourceforge.net/DTD/sodipodi-0.dtd"
   xmlns:inkscape="http://www.inkscape.org/namespaces/inkscape"
   viewBox="0 0 192 192"
   version="1.1"
   id="svg16"
   sodipodi:docname="xooma.svg"
   inkscape:version="0.92.4 (5da689c313, 2019-01-14)">
  <metadata
     id="metadata20">
    <rdf:RDF>
      <cc:Work
         rdf:about="">
        <dc:format>image/svg+xml</dc:format>
        <dc:type
           rdf:resource="http://purl.org/dc/dcmitype/StillImage" />
        <dc:title></dc:title>
      </cc:Work>
    </rdf:RDF>
  </metadata>
  <sodipodi:namedview
     pagecolor="#ffffff"
     bordercolor="#666666"
     borderopacity="1"
     objecttolerance="10"
     gridtolerance="10"
     guidetolerance="10"
     inkscape:pageopacity="0"
     inkscape:pageshadow="2"
     inkscape:window-width="1920"
     inkscape:window-height="1017"
     id="namedview18"
     showgrid="true"
     inkscape:zoom="4.9166667"
     inkscape:cx="69.905749"
     inkscape:cy="82.169494"
     inkscape:window-x="-8"
     inkscape:window-y="-8"
     inkscape:window-maximized="1"
     inkscape:current-layer="svg16"
     inkscape:snap-global="false">
    <inkscape:grid
       type="xygrid"
       id="grid827"
       spacingx="4"
       spacingy="4" />
  </sodipodi:namedview>
  <defs
     id="defs4">
    <style
       id="style2">.a{fill:none;stroke:#b1b5bd;stroke-linecap:round;stroke-linejoin:round;isolation:isolate;opacity:0.63;}</style>
  </defs>
  <rect
     class="a"
     x="20"
     y="20"
     width="152"
     height="152"
     rx="10"
     id="rect6"
     style="fill:#ffffff;stroke:none;opacity:1" />
  <path
     style="fill:#9abeff;stroke:none;stroke-width:0.25070241px;stroke-linecap:butt;stroke-linejoin:miter;stroke-opacity:1"
     d="M 128.32703,67.68658 H 109.66456 L 86.820906,93.895605 113.43786,124.28583 h 18.76443 L 105.38138,93.691644 Z"
     id="path829-8"
     inkscape:connector-curvature="0"
     sodipodi:nodetypes="ccccccc" />
  <path
     style="fill:#ffffff;stroke:none;stroke-width:0.25070241px;stroke-linecap:butt;stroke-linejoin:miter;stroke-opacity:1"
     d="M 68.974293,67.68658 H 87.126844 L 109.97051,93.895605 83.353564,124.28583 H 65.099027 L 91.919938,93.691644 Z"
     id="path829-7"
     inkscape:connector-curvature="0"
     sodipodi:nodetypes="ccccccc" />
  <path
     style="fill:#9abeff;stroke:none;stroke-width:0.25070241px;stroke-linecap:butt;stroke-linejoin:miter;stroke-opacity:1"
     d="M 62.858311,67.686581 H 81.01087 L 103.85453,93.895606 77.237584,124.28583 H 58.983046 L 85.803957,93.691644 Z"
     id="path829"
     inkscape:connector-curvature="0"
     sodipodi:nodetypes="ccccccc" />
</svg>

<svg xmlns="http://www.w3.org/2000/svg" viewBox="0 0 192 192"><rect width="152" height="152" x="20" y="20" rx="10" style="fill:#fff;stroke:none;opacity:1;stroke-linecap:round;stroke-linejoin:round;isolation:isolate"/><path d="M128.327 67.687h-18.662L86.82 93.896l26.617 30.39h18.764l-26.82-30.594Z" style="fill:#9abeff;stroke:none;stroke-width:.25070241px;stroke-linecap:butt;stroke-linejoin:miter;stroke-opacity:1"/><path d="M68.974 67.687h18.153l22.844 26.209-26.617 30.39H65.099l26.82-30.594Z" style="fill:#fff;stroke:none;stroke-width:.25070241px;stroke-linecap:butt;stroke-linejoin:miter;stroke-opacity:1"/><path d="M62.858 67.687h18.153l22.844 26.209-26.617 30.39H58.983l26.821-30.594Z" style="fill:#9abeff;stroke:none;stroke-width:.25070241px;stroke-linecap:butt;stroke-linejoin:miter;stroke-opacity:1"/></svg>
